svgs/sharp-regular/square-person-confined.svg

<svg xmlns="http://www.w3.org/2000/svg" viewBox="0 0 448 512"><!--! Font Awesome Pro 6.6.0 by @fontawesome - https://fontawesome.com License - https://fontawesome.com/license (Commercial License) Copyright 2024 Fonticons, Inc. --><path d="M48 80l0 352 352 0 0-352L48 80zM0 32l48 0 352 0 48 0 0 48 0 352 0 48-48 0L48 480 0 480l0-48L0 80 0 32zm208 80a48 48 0 1 1 0 96 48 48 0 1 1 0-96zm70.1 88l9.9 0 40 0 24 0 0 24 0 124c0 31.8-24.7 57.8-56 59.9l0 .1c-.7 0-1.5 0-2.2 0c-.6 0-1.2 0-1.8 0c-5.7 0-11.1-.8-16.3-2.2c-19.6-4.4-37.5-15.1-50.7-30.7L180.1 322 133 406.9 91 383.5l64-115.2 39.3-3.8L232 309l0-53 0-9.9 7-7 32-32 7-7zm15.3 159.9c6-.7 10.6-5.8 10.6-11.9l0-100-6.1 0L280 265.9l0 82.1c0 5.2 3.2 9.5 7.8 11.2c1.8 .3 3.7 .6 5.6 .7z"/></svg>

<svg xmlns="http://www.w3.org/2000/svg" viewBox="0 0 448 512"><!--! Font Awesome Pro 6.4.0 by @fontawesome - https://fontawesome.com License - https://fontawesome.com/license (Commercial License) Copyright 2023 Fonticons, Inc. --><path d="M48 80V432H400V80H48zM0 32H48 400h48V80 432v48H400 48 0V432 80 32zm208 80a48 48 0 1 1 0 96 48 48 0 1 1 0-96zm70.1 88H288h40 24v24V348c0 31.8-24.7 57.8-56 59.9v.1c-.7 0-1.5 0-2.2 0c-.6 0-1.2 0-1.8 0c-5.7 0-11.1-.8-16.3-2.2c-19.6-4.4-37.5-15.1-50.7-30.7L180.1 322 133 406.9 91 383.5l64-115.2 39.3-3.8L232 309V256v-9.9l7-7 32-32 7-7zm15.3 159.9c6-.7 10.6-5.8 10.6-11.9V248h-6.1L280 265.9V348c0 5.2 3.2 9.5 7.8 11.2c1.8 .3 3.7 .6 5.6 .7z"/></svg>
